public/img/h-wave.svg

<svg width="144" height="47" viewBox="0 0 144 47" fill="none" xmlns="http://www.w3.org/2000/svg">
<path d="M144 28.1584L143.92 28.0946L144 28.0095L141.971 26.3934L127.782 14.1026C127.782 14.1026 127.531 14.3471 127.121 14.7086L126.745 15.0914C123.508 17.9089 113.137 26.0638 100.965 26.2233C100.703 26.2233 100.441 26.2233 100.179 26.2233C93.7738 25.5747 87.5283 22.3638 81.1916 16.4204C70.6723 6.51117 58.9676 1.16315 46.374 0.450795C46.0207 0.450795 45.6674 0.450795 45.3255 0.450795C43.431 0.294118 41.5278 0.247959 39.6271 0.312579C20.6626 1.03557 6.57602 12.9011 1.78932 17.473C0.763593 18.3342 0.14816 18.9509 0.0113969 19.0572L0.0797784 19.121C0.0589709 19.1567 0.0320205 19.1891 0 19.2167L2.02865 20.8115L16.2178 33.113L16.8788 32.4963L17.2549 32.1136C20.4803 29.2854 30.8628 21.1305 43.0347 20.9816C43.2969 20.9816 43.5476 20.9816 43.8097 20.9816C50.2262 21.6302 56.4603 24.8411 62.797 30.7845C73.3277 40.6513 85.0096 45.9993 97.6032 46.7329C97.9451 46.7329 98.2984 46.7329 98.6517 46.7329C100.546 46.89 102.449 46.9362 104.35 46.8711C123.315 46.1481 137.401 34.2932 142.188 29.7213C143.179 28.8282 143.806 28.2222 143.932 28.0946" fill="#B7CE4F"/>
</svg>

<svg width="144" height="47" fill="none" xmlns="http://www.w3.org/2000/svg"><path d="M144 28.158l-.08-.063.08-.085-2.029-1.617-14.189-12.29s-.251.244-.661.606l-.376.382c-3.237 2.818-13.608 10.973-25.78 11.132h-.786c-6.405-.648-12.65-3.86-18.987-9.803C70.672 6.511 58.968 1.163 46.374.45h-1.049a48.963 48.963 0 00-5.698-.137C20.663 1.036 6.576 12.9 1.79 17.473.764 18.334.15 18.951.011 19.057l.069.064a.378.378 0 01-.08.096l2.029 1.595 14.189 12.301.66-.617.377-.382c3.225-2.829 13.608-10.983 25.78-11.132h.775c6.416.648 12.65 3.86 18.987 9.803 10.53 9.866 22.213 15.214 34.806 15.948h1.049a48.76 48.76 0 005.698.138c18.965-.723 33.051-12.578 37.838-17.15a55.575 55.575 0 001.744-1.626" fill="#B7CE4F"/></svg>
